X:1
T:The Punch in the Dark
C:Gerry O'Connor
L:1/8
Q:1/4=120
M:4/4
K: Amaj
B3 d ^cBdc | BdcA F3 A | BABd cBdB | ca{b} ag afec | 
B3 d cBdc | BdcA F3 G | AE E/E/E ABce |1 fcec B3 A :|2 fcec Befg ||
|: a3 g aece | a3 f gabg | a3 g aece | dcBc defg | a3 g aece |  
a3 f gabg |1 a3 g aece | dcBc defg :|2 a3 g agfe | fe dc dcBA || 


